X: 9110
T: Da South End
R: jig
M: 6/8
K: Gmajor
|:d/c/|BGG cAA|dBB e2 c|dBd gdG|FAA A2 d|
BGG c2 A|dBB e2 c|dB/c/d cEF|AGF G2:|
|:f|gBB dGG|DGG B2 G|dB/c/d gdG|
[1 FAA A2 f|gBB d2 G|DGG B2 G|AA/B/c def|gdB G2:|
[2 FAA A2 d|BGG c2 A|dBB e2 c|dB/c/d cEF|AGF G2||

